src/lib/packages/icons/src/assets/line/phone-call.svg

<svg width="24" height="24" viewBox="0 0 24 24" fill="none" xmlns="http://www.w3.org/2000/svg">
<path d="M16.5521 21.752C16.0931 21.752 15.6311 21.69 15.1751 21.565C9.01111 19.873 4.12909 14.995 2.43609 8.83402C2.05109 7.43302 2.26204 5.97301 3.03204 4.72501C3.80504 3.47101 5.0761 2.58701 6.5191 2.29801C7.4721 2.10701 8.4281 2.53301 8.9151 3.35501L10.4781 5.99399C11.2371 7.27599 10.86 8.92799 9.61896 9.75299L8.4881 10.505C9.5451 12.676 11.3229 14.458 13.4839 15.514L14.2462 14.377C15.0752 13.138 16.7281 12.767 18.0091 13.53L20.6522 15.106C21.4702 15.594 21.8941 16.548 21.7071 17.481C21.4191 18.924 20.5341 20.195 19.2811 20.968C18.4391 21.487 17.5021 21.752 16.5521 21.752ZM6.97809 3.75C6.92909 3.75 6.87911 3.75502 6.83111 3.76502C5.77711 3.97602 4.86512 4.611 4.31012 5.512C3.76112 6.402 3.61009 7.44101 3.88409 8.43601C5.43709 14.09 9.91608 18.566 15.5721 20.118C16.5671 20.391 17.605 20.239 18.493 19.691C19.393 19.136 20.0291 18.222 20.2361 17.186C20.2981 16.875 20.1571 16.556 19.8841 16.394L17.241 14.818C16.643 14.463 15.876 14.637 15.492 15.212L14.377 16.877C14.177 17.175 13.7911 17.289 13.4651 17.151C10.5021 15.913 8.09213 13.496 6.85113 10.522C6.71313 10.19 6.82999 9.80801 7.12799 9.60901L8.78912 8.504C9.36512 8.121 9.54007 7.35401 9.18707 6.75901L7.62408 4.12C7.48708 3.887 7.23909 3.75 6.97809 3.75ZM14.869 14.794H14.879H14.869ZM17.7501 10C17.7501 7.932 16.0671 6.25 14.0001 6.25C13.5861 6.25 13.2501 6.586 13.2501 7C13.2501 7.414 13.5861 7.75 14.0001 7.75C15.2401 7.75 16.2501 8.759 16.2501 10C16.2501 10.414 16.5861 10.75 17.0001 10.75C17.4141 10.75 17.7501 10.414 17.7501 10ZM20.7501 10C20.7501 6.278 17.7221 3.25 14.0001 3.25C13.5861 3.25 13.2501 3.586 13.2501 4C13.2501 4.414 13.5861 4.75 14.0001 4.75C16.8951 4.75 19.2501 7.105 19.2501 10C19.2501 10.414 19.5861 10.75 20.0001 10.75C20.4141 10.75 20.7501 10.414 20.7501 10Z" fill="currentColor"/>
</svg>

<svg xmlns="http://www.w3.org/2000/svg" width="24" height="24" fill="none"><path fill="currentColor" d="M16.552 21.752c-.459 0-.92-.062-1.377-.187C9.011 19.873 4.13 14.995 2.436 8.834a5.15 5.15 0 0 1 .596-4.109 5.342 5.342 0 0 1 3.487-2.427 2.26 2.26 0 0 1 2.396 1.057l1.563 2.639a2.8 2.8 0 0 1-.859 3.759l-1.13.752a10.926 10.926 0 0 0 4.995 5.009l.762-1.137a2.801 2.801 0 0 1 3.763-.847l2.643 1.576a2.254 2.254 0 0 1 1.055 2.375 5.34 5.34 0 0 1-2.426 3.487 5.182 5.182 0 0 1-2.729.784ZM6.978 3.75a.726.726 0 0 0-.147.015 3.843 3.843 0 0 0-2.52 1.747c-.55.89-.7 1.929-.427 2.924 1.553 5.654 6.032 10.13 11.688 11.682a3.664 3.664 0 0 0 2.921-.427 3.838 3.838 0 0 0 1.743-2.505.752.752 0 0 0-.352-.792l-2.643-1.576a1.302 1.302 0 0 0-1.749.394l-1.115 1.665a.751.751 0 0 1-.912.274 12.412 12.412 0 0 1-6.614-6.629.751.751 0 0 1 .277-.913l1.661-1.105a1.3 1.3 0 0 0 .398-1.745L7.624 4.12a.75.75 0 0 0-.646-.37Zm7.891 11.044h.01-.01ZM17.75 10A3.755 3.755 0 0 0 14 6.25a.75.75 0 0 0 0 1.5c1.24 0 2.25 1.009 2.25 2.25a.75.75 0 0 0 1.5 0Zm3 0A6.758 6.758 0 0 0 14 3.25a.75.75 0 0 0 0 1.5A5.256 5.256 0 0 1 19.25 10a.75.75 0 0 0 1.5 0Z"/></svg>
